X: 31
T:Rory O'More,2nd part. JNu.19
M:6/8
L:1/8
Q:90
S:James Nuttall MS,c1830,Rossendale,East Lancs.
R:Jig
O:England
A:East Lancashire
Z:vmp.Chris Partington
W:a
K:A
"secundo"z|cAE AEE|cAEE2E|cAEE2E|GGGG2F|!
E3ECC|E2E dcB|c2ce2d|cccc2:|!
|:c|fed cAE|BAGE2E|DEE EAB|dccc2z:|]
